server/website/public/icons/base/projectmanagement.svg

<svg width="48" height="48" viewBox="0 0 48 48" fill="none" xmlns="http://www.w3.org/2000/svg">
<g clip-path="url(#clip0_1395_23408)">
<path d="M40.5 3C41.2956 3 42.0587 3.31607 42.6213 3.87868C43.1839 4.44129 43.5 5.20435 43.5 6V42C43.5 42.7956 43.1839 43.5587 42.6213 44.1213C42.0587 44.6839 41.2956 45 40.5 45H7.5C6.70435 45 5.94129 44.6839 5.37868 44.1213C4.81607 43.5587 4.5 42.7956 4.5 42V6C4.5 5.20435 4.81607 4.44129 5.37868 3.87868C5.94129 3.31607 6.70435 3 7.5 3H40.5ZM7.5 0C5.9087 0 4.38258 0.632141 3.25736 1.75736C2.13214 2.88258 1.5 4.4087 1.5 6V42C1.5 43.5913 2.13214 45.1174 3.25736 46.2426C4.38258 47.3679 5.9087 48 7.5 48H40.5C42.0913 48 43.6174 47.3679 44.7426 46.2426C45.8679 45.1174 46.5 43.5913 46.5 42V6C46.5 4.4087 45.8679 2.88258 44.7426 1.75736C43.6174 0.632141 42.0913 0 40.5 0L7.5 0Z" fill="black"/>
<path d="M19.5 9C19.5 8.20435 19.8161 7.44129 20.3787 6.87868C20.9413 6.31607 21.7044 6 22.5 6H25.5C26.2956 6 27.0587 6.31607 27.6213 6.87868C28.1839 7.44129 28.5 8.20435 28.5 9V18C28.5 18.7956 28.1839 19.5587 27.6213 20.1213C27.0587 20.6839 26.2956 21 25.5 21H22.5C21.7044 21 20.9413 20.6839 20.3787 20.1213C19.8161 19.5587 19.5 18.7956 19.5 18V9ZM7.5 9C7.5 8.20435 7.81607 7.44129 8.37868 6.87868C8.94129 6.31607 9.70435 6 10.5 6H13.5C14.2956 6 15.0587 6.31607 15.6213 6.87868C16.1839 7.44129 16.5 8.20435 16.5 9V30C16.5 30.7956 16.1839 31.5587 15.6213 32.1213C15.0587 32.6839 14.2956 33 13.5 33H10.5C9.70435 33 8.94129 32.6839 8.37868 32.1213C7.81607 31.5587 7.5 30.7956 7.5 30V9ZM31.5 9C31.5 8.20435 31.8161 7.44129 32.3787 6.87868C32.9413 6.31607 33.7044 6 34.5 6H37.5C38.2956 6 39.0587 6.31607 39.6213 6.87868C40.1839 7.44129 40.5 8.20435 40.5 9V39C40.5 39.7956 40.1839 40.5587 39.6213 41.1213C39.0587 41.6839 38.2956 42 37.5 42H34.5C33.7044 42 32.9413 41.6839 32.3787 41.1213C31.8161 40.5587 31.5 39.7956 31.5 39V9Z" fill="black"/>
</g>
<defs>
<clipPath id="clip0_1395_23408">
<rect width="48" height="48" fill="white"/>
</clipPath>
</defs>
</svg>

<svg width="48" height="48" fill="none" xmlns="http://www.w3.org/2000/svg"><g clip-path="url(#prefix__clip0_1395_23408)" fill="#000"><path d="M40.5 3a3 3 0 013 3v36a3 3 0 01-3 3h-33a3 3 0 01-3-3V6a3 3 0 013-3h33zm-33-3a6 6 0 00-6 6v36a6 6 0 006 6h33a6 6 0 006-6V6a6 6 0 00-6-6h-33z"/><path d="M19.5 9a3 3 0 013-3h3a3 3 0 013 3v9a3 3 0 01-3 3h-3a3 3 0 01-3-3V9zm-12 0a3 3 0 013-3h3a3 3 0 013 3v21a3 3 0 01-3 3h-3a3 3 0 01-3-3V9zm24 0a3 3 0 013-3h3a3 3 0 013 3v30a3 3 0 01-3 3h-3a3 3 0 01-3-3V9z"/></g><defs><clipPath id="prefix__clip0_1395_23408"><path fill="#fff" d="M0 0h48v48H0z"/></clipPath></defs></svg>
